X:3
T:Walzer C 7- (wz02180)
S:Hanny Christen. Bd.II  St. Gallen II, Graubünden, Tessin. S.370 (wz02180) orig. G
S:Bündner Tanzmusik. S.367-383. Zusammenstellung von Hanny Christen. 
O:Switzerland
% %%MIDI program 21
R:Walzer
M:3/4
L:1/4
K:C %%MIDI gchordon
G |: "C"c>cc | B>BB | "G7"F3 | B,DF | B2A | "C"AGE | C3 | G ^F/2G/2 A/2G/2 | 
C2E/2G/2 | "G7"G2F | B,3 | G,B,D | G>GG | BG/2F/2 E/2D/2 |1 "C"C2G :|2 "C"C2A/2B/2 || 
|: "C"(c3 | c)BA | A/2G/2 E/2A/2G | A/2G/2 E/2A/2 G | A/2G/2 E/2A/2 G/2E/2 | "G7"F>B,B, | zGA | B3 | 
B/2A/2 F/2B/2A | B/2A/2 F/2B/2A | B/2A/2 F/2B/2 A/2F/2 |1 "C"A>GG | zAB :|2 "G7"A/2G/2 F/2G/2 A/2B/2 | "C"czz |] 
% wz02180
% Nov 27, 2016

